modules/hawcons-filled/icons/two-fingers-rotate.svg

<?xml version="1.0" encoding="UTF-8" standalone="no"?>
<svg width="32px" height="32px" viewBox="0 0 32 32" version="1.1" xmlns="http://www.w3.org/2000/svg" xmlns:xlink="http://www.w3.org/1999/xlink" xmlns:sketch="http://www.bohemiancoding.com/sketch/ns">
    <!-- Generator: Sketch 3.0.3 (7891) - http://www.bohemiancoding.com/sketch -->
    <title>icon 17 two fingers rotate</title>
    <desc>Created with Sketch.</desc>
    <defs></defs>
    <g id="Page-1" stroke="none" stroke-width="1" fill="none" fill-rule="evenodd" sketch:type="MSPage">
        <g id="icon-17-two-fingers-rotate" sketch:type="MSArtboardGroup" fill="#929292">
            <path d="M5.31912495,12.4404453 C5.13474411,11.8380063 5.03553391,11.198356 5.03553391,10.5355339 C5.03553391,6.94568285 7.94568285,4.03553391 11.5355339,4.03553391 C12.198356,4.03553391 12.8380063,4.13474411 13.4404453,4.31912495 L13.4404453,4.31912495 L10.8284271,1.70710678 L11.5355339,1 L15.0710678,4.53553391 L14.363961,5.24264069 L14.0355339,5.57106781 L14.0355339,5.63524344 C14.0213622,5.62799894 14.0071549,5.62081411 13.9929127,5.61368905 L11.5355339,8.07106781 L10.8284271,7.36396103 L12.9683589,5.22402921 C12.5115307,5.10109894 12.0311891,5.03553391 11.5355339,5.03553391 C8.49796763,5.03553391 6.03553391,7.49796763 6.03553391,10.5355339 C6.03553391,11.0311891 6.10109894,11.5115307 6.22402921,11.9683589 L8.36396103,9.82842712 L9.07106781,10.5355339 L6.61368905,12.9929127 C6.62081411,13.0071549 6.62799894,13.0213622 6.63524344,13.0355339 L6.57106781,13.0355339 L5.53553391,14.0710678 L4.82842712,13.363961 L2,10.5355339 L2.70710678,9.82842712 L5.31912495,12.4404453 L5.31912495,12.4404453 L5.31912495,12.4404453 Z M23.0355339,6.52643204 C23.0355339,5.70303174 22.3697367,5.03553391 21.5355339,5.03553391 C20.7071068,5.03553391 20.0355339,5.71175397 20.0355339,6.52643204 L20.0355339,15.4680572 L20.0355339,18.0355339 L19.0355339,18.0355339 L19.0355339,15.5355339 L19.0355339,8.5441705 C19.0355339,7.71097352 18.3697367,7.03553391 17.5355339,7.03553391 C16.7071068,7.03553391 16.0355339,7.70195405 16.0355339,8.5441705 L16.0355339,18.833879 C13.9771343,16.6334582 11.2671637,14.2146545 10.1565666,15.3312492 C9.06939683,16.4242901 11.8708959,19.4362555 15.7829094,26.0186275 C17.5455297,28.9844214 19.7758188,31.0350757 23.5355339,31.0355339 C27.6776697,31.0355339 31.0355339,27.6776697 31.0355339,23.5355339 L31.0355339,20.2823351 L31.0355339,15.5419316 C31.0355339,14.7099711 30.3697367,14.0355339 29.5355339,14.0355339 C28.7071068,14.0355339 28.0355339,14.7119967 28.0355339,15.5419316 L28.0355339,17.7852592 L28.0355339,18.0355339 L27.0355339,18.0355339 L27.0355339,15.7136898 L27.0355339,14.5267992 C27.0355339,13.7031961 26.3697367,13.0355339 25.5355339,13.0355339 C24.7071068,13.0355339 24.0355339,13.6980783 24.0355339,14.5267992 L24.0355339,15.543735 L24.0355339,17.0355339 L23.0355339,17.0355339 L23.0355339,15.543735 L23.0355339,6.52643204 L23.0355339,6.52643204 Z" id="two-fingers-rotate" sketch:type="MSShapeGroup"></path>
        </g>
    </g>
</svg>

<svg width="32" height="32" viewBox="0 0 32 32" xmlns="http://www.w3.org/2000/svg"><path d="M5.32 12.44A6.5 6.5 0 0 1 13.44 4.32l-2.613-2.612.708-.707 3.535 3.536-.707.707-.328.328v.064a5.494 5.494 0 0 0-.043-.021L11.536 8.07l-.708-.707 2.14-2.14a5.5 5.5 0 0 0-6.744 6.744l2.14-2.14.707.708-2.457 2.457.021.043h-.064L5.536 14.07l-.708-.707L2 10.536l.707-.708L5.32 12.44zm17.716-5.914c0-.823-.666-1.49-1.5-1.49-.829 0-1.5.676-1.5 1.49v11.51h-1V8.544a1.5 1.5 0 1 0-3 0v10.29c-2.059-2.2-4.769-4.62-5.88-3.503-1.087 1.093 1.715 4.105 5.627 10.688 1.763 2.965 3.993 5.016 7.753 5.017a7.5 7.5 0 0 0 7.5-7.5v-7.994a1.5 1.5 0 1 0-3 0v2.493h-1v-3.508c0-.824-.666-1.491-1.5-1.491-.829 0-1.5.662-1.5 1.49v2.51h-1V6.526z" fill="#929292" fill-rule="evenodd"/></svg>
